X: 23
T: Big Liza Jane
R: Reel
M: C|
L: 1/8
K: D
|:"D"D2F2A4 |BAF2A3A| "G"d2d2dBAB |d3ed4 |"D"D2F2A4 |BAF2A2AB |
"G"d2f2edB2|"A"A3BA4:||:"G"g2ga gfeg |"D"f2fg fe d2 | "G"efed "A"cABc | 
"D"dcdef4 |"G"g3fg4|"D"f2fgfed2|"A"efed cAB2|1A3BA4 :|2A2G2F2E2|]

%%newpage
%%textfont * 14
%%begintext justify
%%32 Bar Reels
%%endtext
